svg/u1f469_1f3fe_200d_1f33e.svg

<svg viewBox="0 0 128 128" xmlns="http://www.w3.org/2000/svg">
  <g id="hairGroup_1_">
    <path id="hair_10_" d="M52.81,24.87c-60.57,0-38.8,75.78-28.98,89.43c3.9,5.41,11.43,5.71,11.43,5.71 l16.97-0.03l16.97,0.03c0,0,7.54-0.3,11.43-5.71C90.47,100.65,113.38,24.87,52.81,24.87z" fill="#3C2C23"/>
    <radialGradient id="hairHighlights_2_" cx="52.5054" cy="55.562" gradientTransform="matrix(1 0 0 -1 0 128)" gradientUnits="userSpaceOnUse" r="44.2453">
      <stop offset="0.7936" stop-color="#554138" stop-opacity="0"/>
      <stop offset="1" stop-color="#554138"/>
    </radialGradient>
    <path id="hairHighlights_1_" d="M52.81,24.87c-60.57,0-38.8,75.78-28.98,89.43 c3.9,5.41,11.43,5.71,11.43,5.71l16.97-0.03l16.97,0.03c0,0,7.54-0.3,11.43-5.71C90.47,100.65,113.38,24.87,52.81,24.87z" fill="url(#hairHighlights_2_)"/>
  </g>
  <g id="hat_x5F_back">
    <path d="M51.47,37.93C25.35,37.24-5.38,8.76,5.01,39.2c5.98,17.5,26.2,26.03,46.46,25.77 c20.26,0.26,40.48-8.26,46.46-25.77C108.32,8.76,77.59,37.24,51.47,37.93z" fill="#E59600"/>
  </g>
  <g id="neck_1_">
    <path d="M51.72,90.68H42.8v10.68c0,4.83,3.63,8.74,8.11,8.74h1.62c4.48,0,8.11-3.92,8.11-8.74V90.68H51.72z" fill="#7A4C32"/>
  </g>
  <g id="farmer_x5F_overall_1_">
    <linearGradient id="SVGID_1_" gradientTransform="matrix(1 0 0 -1 0 128)" gradientUnits="userSpaceOnUse" x1="51.72" x2="51.72" y1="4" y2="29.982">
      <stop offset="0" stop-color="#709E3B"/>
      <stop offset="0.3283" stop-color="#73A13E"/>
      <stop offset="0.5949" stop-color="#7DAB47"/>
      <stop offset="0.8391" stop-color="#8DBC57"/>
      <stop offset="1" stop-color="#9CCC65"/>
    </linearGradient>
    <path d="M95.73,120.81c0-17.79-25.56-21.89-34.66-22.78l-7.67,10.54l-3.33,0l-7.55-10.56 c-9.85,0.93-18.23,3.27-24.28,6.78c-6.98,4.05-10.51,9.44-10.51,16.01V124h88.02V120.81z" fill="url(#SVGID_1_)"/>
    <g>
      <linearGradient id="SVGID_2_" gradientTransform="matrix(1 0 0 -1 0 128)" gradientUnits="userSpaceOnUse" x1="51.7905" x2="51.7905" y1="3.4817" y2="28.0743">
        <stop offset="0" stop-color="#1E88E5"/>
        <stop offset="1" stop-color="#1565C0"/>
      </linearGradient>
      <polygon fill="url(#SVGID_2_)" points="83.64,120.08 76.47,114.56 76.72,114.17 50.73,114.66 26.86,114.17 27.11,114.56 19.94,120.08 19.77,124 83.81,124 "/>
      <linearGradient id="SVGID_3_" gradientTransform="matrix(1 0 0 -1 0 128)" gradientUnits="userSpaceOnUse" x1="28.3335" x2="28.3335" y1="4.0075" y2="27.3851">
        <stop offset="0" stop-color="#1E88E5"/>
        <stop offset="1" stop-color="#1565C0"/>
      </linearGradient>
      <path d="M33.78,107.13l-0.11-7.82c0,0-5.79,1.2-7.87,2.1l-2.92,6.6l3.78,5.86L33.78,107.13z" fill="url(#SVGID_3_)"/>
      <linearGradient id="SVGID_4_" gradientTransform="matrix(-1 0 0 -1 141.1623 128)" gradientUnits="userSpaceOnUse" x1="65.9148" x2="65.9148" y1="4.0075" y2="27.3851">
        <stop offset="0" stop-color="#1E88E5"/>
        <stop offset="1" stop-color="#1565C0"/>
      </linearGradient>
      <path d="M69.8,107.13l0.11-7.82c0,0,5.79,1.2,7.87,2.1l2.92,6.6l-3.79,5.86L69.8,107.13z" fill="url(#SVGID_4_)"/>
    </g>
    <path d="M72.97,115.61l5.17,0.98c1.38,0.26,2.71-0.65,2.98-2.03l0,0c0.26-1.38-0.65-2.71-2.03-2.98 l-5.17-0.98c-1.38-0.26-2.71,0.65-2.98,2.03l0,0C70.68,114.02,71.58,115.35,72.97,115.61z" fill="#BDBDBD"/>
    <path d="M30.61,115.61l-5.17,0.98c-1.38,0.26-2.72-0.65-2.98-2.03l0,0c-0.26-1.38,0.65-2.71,2.03-2.98 l5.17-0.98c1.38-0.26,2.71,0.65,2.98,2.03l0,0C32.9,114.02,32,115.35,30.61,115.61z" fill="#BDBDBD"/>
    <linearGradient id="SVGID_5_" gradientTransform="matrix(1 0 0 -1 0 128)" gradientUnits="userSpaceOnUse" x1="43.175" x2="43.175" y1="27.7313" y2="12.9543">
      <stop offset="0" stop-color="#AED581"/>
      <stop offset="1" stop-color="#8BC34A"/>
    </linearGradient>
    <path d="M42.38,98.03c-2.61,0.25-5.11,0.61-7.5,1.05l-0.25,20.95l17.09-11.53L42.38,98.03z" fill="url(#SVGID_5_)"/>
    <linearGradient id="SVGID_6_" gradientTransform="matrix(1 0 0 -1 0 128)" gradientUnits="userSpaceOnUse" x1="60.265" x2="60.265" y1="29.9119" y2="12.4784">
      <stop offset="0" stop-color="#AED581"/>
      <stop offset="1" stop-color="#8BC34A"/>
    </linearGradient>
    <path d="M68.56,99.11c-2.96-0.56-5.59-0.89-7.49-1.08l0,0l-9.34,10.48l17.09,11.53L68.56,99.11z" fill="url(#SVGID_6_)"/>
  </g>
  <g id="head_1_">
    <path d="M51.72,17.3L51.72,17.3L51.72,17.3c-17.14,0-33.01,12.74-33.01,39.76 c0,21.7,13.44,34.54,25.14,38.68c2.79,0.99,5.48,1.49,7.87,1.49c2.37,0,5.05-0.49,7.82-1.47c11.71-4.12,25.18-16.97,25.18-38.7 C84.73,30.04,68.86,17.31,51.72,17.3z" fill="#A56C43"/>
  </g>
  <g id="eyes">
    <ellipse cx="36.17" cy="60.01" fill="#42312C" rx="4.84" ry="5.01"/>
    <ellipse cx="66.77" cy="60.01" fill="#42312C" rx="4.84" ry="5.01"/>
  </g>
  <path id="mouth" d="M59.85,77.04c-3.13,1.86-13.39,1.86-16.52,0c-1.8-1.07-3.63,0.57-2.89,2.2 c0.73,1.61,6.33,5.33,11.17,5.33s10.36-3.72,11.1-5.33C63.46,77.6,61.65,75.97,59.85,77.04z" fill="#473530"/>
  <g id="eyebrows">
    <path d="M43.36,51.13c-0.91-1.21-3.02-2.96-7.1-2.96s-6.19,1.75-7.1,2.96c-0.4,0.53-0.3,1.15-0.02,1.52 c0.26,0.35,1.02,0.67,1.87,0.38s2.49-1.14,5.26-1.16c2.76,0.02,4.41,0.87,5.26,1.16c0.85,0.29,1.61-0.03,1.87-0.38 C43.66,52.28,43.76,51.66,43.36,51.13z" fill="#42312C"/>
    <path d="M73.79,51.13c-0.91-1.21-3.02-2.96-7.1-2.96s-6.19,1.75-7.1,2.96c-0.4,0.53-0.3,1.15-0.02,1.52 c0.26,0.35,1.02,0.67,1.87,0.38s2.49-1.14,5.26-1.16c2.76,0.02,4.41,0.87,5.26,1.16s1.61-0.03,1.87-0.38 C74.09,52.28,74.19,51.66,73.79,51.13z" fill="#42312C"/>
  </g>
  <path id="nose" d="M55.26,69.09c-0.1-0.04-0.21-0.07-0.32-0.08H48c-0.11,0.01-0.21,0.04-0.32,0.08 C47.05,69.35,46.7,70,47,70.69c0.3,0.69,1.68,2.64,4.47,2.64c2.79,0,4.17-1.95,4.47-2.64C56.24,70,55.89,69.35,55.26,69.09z" fill="#875334"/>
  <g id="hairGroup">
    <path id="hair" d="M91.58,66.72h-7.71c0.06-3.83,0.09-15.69-3.9-19.38c-3.35-3.1-13.98-9.67-17.27-16.86 c0,0-12.66,11.86-35.02,16.89c-6.09,1.37-8.13,16.42-8.08,19.33l-7.72,0.02c-0.02-0.33-3.36-41.85,40.93-41.85 S91.58,66.67,91.58,66.72z" fill="#3C2C23"/>
    <radialGradient id="hairHighlights_3_" cx="52.9349" cy="61.3784" gradientTransform="matrix(1 0 0 -1 0 128)" gradientUnits="userSpaceOnUse" r="41.45">
      <stop offset="0.8431" stop-color="#554138" stop-opacity="0"/>
      <stop offset="1" stop-color="#554138" stop-opacity="0.8"/>
    </radialGradient>
    <path id="hairHighlights" d="M91.58,66.72h-7.71c0.06-3.83,0.09-15.69-3.9-19.38 c-3.35-3.1-13.98-9.67-17.27-16.86c0,0-12.66,11.86-35.02,16.89c-6.09,1.37-8.13,16.42-8.08,19.33l-7.72,0.02 c-0.02-0.33-3.36-41.85,40.93-41.85S91.58,66.67,91.58,66.72z" fill="url(#hairHighlights_3_)"/>
  </g>
  <g id="hat_front">
    <g>
      <linearGradient id="SVGID_7_" gradientTransform="matrix(1 0 0 -1 0 128)" gradientUnits="userSpaceOnUse" x1="51.4715" x2="51.4715" y1="120.426" y2="96.6413">
        <stop offset="2.800000e-03" stop-color="#FFF59D"/>
        <stop offset="0.5532" stop-color="#FEE565"/>
        <stop offset="0.9964" stop-color="#FDD835"/>
      </linearGradient>
      <path d="M77.49,29.04C72.67,17.05,67.93,7.59,61.86,6.86C60.24,6.67,56,6.13,51.71,6.12 c-4.45,0-8.95,0.54-10.62,0.74c-6.07,0.73-10.81,10.19-15.64,22.17C22.83,35.53,80.11,35.53,77.49,29.04z" fill="url(#SVGID_7_)"/>
    </g>
    <g>
      <linearGradient id="SVGID_8_" gradientTransform="matrix(1 0 0 -1 0 128)" gradientUnits="userSpaceOnUse" x1="51.47" x2="51.47" y1="101.4525" y2="72.4249">
        <stop offset="2.800000e-03" stop-color="#FFF59D"/>
        <stop offset="0.5532" stop-color="#FEE565"/>
        <stop offset="0.9964" stop-color="#FDD835"/>
      </linearGradient>
      <path d="M91.57,24.72c-9.43,1.71-25.18,3.7-39.53,3.76c-0.19,0-0.38,0-0.57,0c-0.19,0-0.38,0-0.57,0 c-14.35-0.06-30.1-2.05-39.53-3.76c-8.14-1.48-8.43,3.84-8.43,3.84s2.58-3.19,7.11,1.23c7.03,6.86,18.48,17.75,40.77,17.84 c0.22,0,0.43-0.01,0.65-0.01c0.22,0,0.43,0.01,0.65,0.01c22.3-0.1,33.74-10.98,40.77-17.84c4.53-4.42,7.11-1.23,7.11-1.23 S99.71,23.24,91.57,24.72z" fill="url(#SVGID_8_)"/>
    </g>
    <path d="M51.47,20.37c-15.18,0-25.05,6.55-25.05,6.55s14.37,1.47,25.05,1.47s25.05-1.47,25.05-1.47 S66.65,20.37,51.47,20.37z" fill="#78909C"/>
  </g>
  <g id="fork">
    <line fill="none" stroke="#D18100" stroke-miterlimit="10" stroke-width="5" x1="107.48" x2="107.48" y1="109.01" y2="124"/>
    <path d="M108.64,116.76h-2.32c-1.39,0-2.51,0-2.51-2.51v-12.01h7.33v12.01 C111.15,116.38,110.02,116.76,108.64,116.76z" fill="#636363"/>
    <path d="M116.73,99.5c-1.84,0-7.74,0.06-9.07,0.06c-2.12,0-7.74-0.19-10.03-0.19 c-7.48,0-7.54-26.69-7.54-26.69v24.71c0,6.69,3.42,8.83,9.42,9.05h15.38c5.42,0,7.35-3.71,7.35-8.15l-0.38-4.86 C121.84,93.44,120.39,99.5,116.73,99.5z" fill="#616161"/>
    <linearGradient id="SVGID_9_" gradientTransform="matrix(1 0 0 -1 0 128)" gradientUnits="userSpaceOnUse" x1="106.7775" x2="106.7775" y1="19.532" y2="78.2024">
      <stop offset="0" stop-color="#757575"/>
      <stop offset="0.4818" stop-color="#9E9E9E"/>
    </linearGradient>
    <path d="M123.37,38.4c-0.11-0.42-0.73-0.41-0.83,0.01l-1.15,4.68l-2,52.18c0,0-0.01,0.27-0.01,0.41 c0,1.54-1.19,2.64-2.73,2.64s-2.81-1.12-2.81-2.66c0-0.22,0.6-52.38,0.6-52.38l-1.19-5.13c-0.11-0.42-0.72-0.42-0.83-0.01 l-1.35,5.05l-0.62,52.15c0,1.7-1.03,2.99-2.73,2.99c-1.7,0-3.08-1.38-3.08-3.08l-0.3-52.17l-1.18-4.94c-0.11-0.41-0.71-0.41-0.83,0 l-1.5,5.15l0.03,51.86c0,1.76-1.22,3.19-2.98,3.19c-1.96,0-3.4-1.43-3.4-3.19l-2.04-52.06l-1.34-4.97 c-0.11-0.42-0.6-0.34-0.72,0.07l-1.37,5l1.6,53.63c0,4.52,2.88,7.94,8.88,8.17h15.38c5.42,0,7.5-3.73,7.5-8.17l2.16-53.4 L123.37,38.4z" fill="url(#SVGID_9_)"/>
  </g>
</svg>

<svg viewBox="0 0 128 128" xmlns="http://www.w3.org/2000/svg">
  <defs>
    <linearGradient id="SVGID_1_" gradientTransform="matrix(1 0 0 -1 0 0)" gradientUnits="userSpaceOnUse" x1="51.72" x2="51.72" y1="-124" y2="-98.018">
      <stop offset="0" stop-color="#709E3B"/>
      <stop offset="0.3283" stop-color="#73A13E"/>
      <stop offset="0.5949" stop-color="#7DAB47"/>
      <stop offset="0.8391" stop-color="#8DBC57"/>
      <stop offset="1" stop-color="#9CCC65"/>
    </linearGradient>
    <linearGradient id="SVGID_5_" gradientTransform="matrix(1 0 0 -1 0 0)" gradientUnits="userSpaceOnUse" x1="43.175" x2="43.175" y1="-100.2687" y2="-115.0457">
      <stop offset="0" stop-color="#AED581"/>
      <stop offset="1" stop-color="#8BC34A"/>
    </linearGradient>
    <linearGradient id="SVGID_6_" gradientTransform="matrix(1 0 0 -1 0 0)" gradientUnits="userSpaceOnUse" x1="60.265" x2="60.265" y1="-98.0881" y2="-115.5216">
      <stop offset="0" stop-color="#AED581"/>
      <stop offset="1" stop-color="#8BC34A"/>
    </linearGradient>
    <radialGradient id="hairHighlights_2_" cx="52.5054" cy="-72.438" gradientTransform="matrix(1 0 0 -1 0 0)" gradientUnits="userSpaceOnUse" r="44.2453">
      <stop offset="0.7936" stop-color="#554138" stop-opacity="0"/>
      <stop offset="1" stop-color="#554138"/>
    </radialGradient>
    <radialGradient id="hairHighlights_3_" cx="52.9349" cy="-66.6216" gradientTransform="matrix(1 0 0 -1 0 0)" gradientUnits="userSpaceOnUse" r="41.45">
      <stop offset="0.8431" stop-color="#554138" stop-opacity="0"/>
      <stop offset="1" stop-color="#554138" stop-opacity="0.8"/>
    </radialGradient>
    <linearGradient id="SVGID_9_" gradientTransform="matrix(1 0 0 -1 0 0)" gradientUnits="userSpaceOnUse" x1="106.7775" x2="106.7775" y1="-108.468" y2="-49.7976">
      <stop offset="0" stop-color="#757575"/>
      <stop offset="0.4818" stop-color="#9E9E9E"/>
    </linearGradient>
    <linearGradient id="SVGID_2_" gradientTransform="matrix(1 0 0 -1 0 0)" gradientUnits="userSpaceOnUse" x1="51.7905" x2="51.7905" y1="-124.5183" y2="-99.9257">
      <stop offset="0" stop-color="#1E88E5"/>
      <stop offset="1" stop-color="#1565C0"/>
    </linearGradient>
    <linearGradient id="SVGID_3_" gradientTransform="matrix(1 0 0 -1 0 0)" gradientUnits="userSpaceOnUse" x1="28.3335" x2="28.3335" y1="-123.9925" y2="-100.6149">
      <stop offset="0" stop-color="#1E88E5"/>
      <stop offset="1" stop-color="#1565C0"/>
    </linearGradient>
    <linearGradient id="SVGID_4_" gradientTransform="matrix(-1 0 0 -1 0 0)" gradientUnits="userSpaceOnUse" x1="-75.2475" x2="-75.2475" y1="-123.9925" y2="-100.6149">
      <stop offset="0" stop-color="#1E88E5"/>
      <stop offset="1" stop-color="#1565C0"/>
    </linearGradient>
    <linearGradient id="SVGID_7_" gradientTransform="matrix(1 0 0 -1 0 0)" gradientUnits="userSpaceOnUse" x1="51.4715" x2="51.4715" y1="-7.574" y2="-31.3587">
      <stop offset="2.800000e-03" stop-color="#FFF59D"/>
      <stop offset="0.5532" stop-color="#FEE565"/>
      <stop offset="0.9964" stop-color="#FDD835"/>
    </linearGradient>
    <linearGradient id="SVGID_8_" gradientTransform="matrix(1 0 0 -1 0 0)" gradientUnits="userSpaceOnUse" x1="51.47" x2="51.47" y1="-26.5475" y2="-55.5751">
      <stop offset="2.800000e-03" stop-color="#FFF59D"/>
      <stop offset="0.5532" stop-color="#FEE565"/>
      <stop offset="0.9964" stop-color="#FDD835"/>
    </linearGradient>
  </defs>
  <path id="hair_10_" d="M52.81,24.87 C-7.76,24.87 14.01,100.65 23.83,114.3 C27.73,119.71 35.26,120.01 35.26,120.01 L52.23,119.98 L69.2,120.01 C69.2,120.01 76.74,119.71 80.63,114.3 C90.47,100.65 113.38,24.87 52.81,24.87 Z" fill="#3C2C23"/>
  <path id="hairHighlights_1_" d="M52.81,24.87 C-7.76,24.87 14.01,100.65 23.83,114.3 C27.73,119.71 35.26,120.01 35.26,120.01 L52.23,119.98 L69.2,120.01 C69.2,120.01 76.74,119.71 80.63,114.3 C90.47,100.65 113.38,24.87 52.81,24.87 Z" fill="url(#hairHighlights_2_)"/>
  <path d="M51.47,37.93 C25.35,37.24 -5.38,8.76 5.01,39.2 C10.99,56.7 31.21,65.23 51.47,64.97 C71.73,65.23 91.95,56.71 97.93,39.2 C108.32,8.76 77.59,37.24 51.47,37.93 Z" fill="#E59600"/>
  <path d="M51.72,90.68 L42.8,90.68 L42.8,101.36 C42.8,106.19 46.43,110.1 50.91,110.1 L52.53,110.1 C57.01,110.1 60.64,106.18 60.64,101.36 L60.64,90.68 L51.72,90.68 Z" fill="#7A4C32"/>
  <path d="M95.73,120.81 C95.73,103.02 70.17,98.92 61.07,98.03 L53.4,108.57 L50.07,108.57 L42.52,98.01 C32.67,98.94 24.29,101.28 18.24,104.79 C11.26,108.84 7.73,114.23 7.73,120.8 L7.73,124 L95.75,124 L95.75,120.81 Z" fill="url(#SVGID_1_)"/>
  <path d="M83.64,120.08 L76.47,114.56 L76.72,114.17 L50.73,114.66 L26.86,114.17 L27.11,114.56 L19.94,120.08 L19.77,124 L83.81,124 Z" fill="url(#SVGID_2_)"/>
  <path d="M33.78,107.13 L33.67,99.31 C33.67,99.31 27.88,100.51 25.8,101.41 L22.88,108.01 L26.66,113.87 L33.78,107.13 Z" fill="url(#SVGID_3_)"/>
  <path d="M69.8,107.13 L69.91,99.31 C69.91,99.31 75.7,100.51 77.78,101.41 L80.7,108.01 L76.91,113.87 L69.8,107.13 Z" fill="url(#SVGID_4_)"/>
  <path d="M72.97,115.61 L78.14,116.59 C79.52,116.85 80.85,115.94 81.12,114.56 L81.12,114.56 C81.38,113.18 80.47,111.85 79.09,111.58 L73.92,110.6 C72.54,110.34 71.21,111.25 70.94,112.63 L70.94,112.63 C70.68,114.02 71.58,115.35 72.97,115.61 Z" fill="#BDBDBD"/>
  <path d="M30.61,115.61 L25.44,116.59 C24.06,116.85 22.72,115.94 22.46,114.56 L22.46,114.56 C22.2,113.18 23.11,111.85 24.49,111.58 L29.66,110.6 C31.04,110.34 32.37,111.25 32.64,112.63 L32.64,112.63 C32.9,114.02 32,115.35 30.61,115.61 Z" fill="#BDBDBD"/>
  <path d="M42.38,98.03 C39.77,98.28 37.27,98.64 34.88,99.08 L34.63,120.03 L51.72,108.5 L42.38,98.03 Z" fill="url(#SVGID_5_)"/>
  <path d="M68.56,99.11 C65.6,98.55 62.97,98.22 61.07,98.03 L61.07,98.03 L51.73,108.51 L68.82,120.04 L68.56,99.11 Z" fill="url(#SVGID_6_)"/>
  <path d="M51.72,17.3 L51.72,17.3 L51.72,17.3 C34.58,17.3 18.71,30.04 18.71,57.06 C18.71,78.76 32.15,91.6 43.85,95.74 C46.64,96.73 49.33,97.23 51.72,97.23 C54.09,97.23 56.77,96.74 59.54,95.76 C71.25,91.64 84.72,78.79 84.72,57.06 C84.73,30.04 68.86,17.31 51.72,17.3 Z" fill="#A56C43"/>
  <path d="M41.01,60.01 A4.84 5.01 0 1 1 31.33,60.01 A4.84 5.01 0 1 1 41.01,60.01 Z" fill="#42312C"/>
  <path d="M71.61,60.01 A4.84 5.01 0 1 1 61.93,60.01 A4.84 5.01 0 1 1 71.61,60.01 Z" fill="#42312C"/>
  <path id="mouth" d="M59.85,77.04 C56.72,78.9 46.46,78.9 43.33,77.04 C41.53,75.97 39.7,77.61 40.44,79.24 C41.17,80.85 46.77,84.57 51.61,84.57 C56.45,84.57 61.97,80.85 62.71,79.24 C63.46,77.6 61.65,75.97 59.85,77.04 Z" fill="#473530"/>
  <path d="M43.36,51.13 C42.45,49.92 40.34,48.17 36.26,48.17 C32.18,48.17 30.07,49.92 29.16,51.13 C28.76,51.66 28.86,52.28 29.14,52.65 C29.4,53 30.16,53.32 31.01,53.03 C31.86,52.74 33.5,51.89 36.27,51.87 C39.03,51.89 40.68,52.74 41.53,53.03 C42.38,53.32 43.14,53 43.4,52.65 C43.66,52.28 43.76,51.66 43.36,51.13 Z" fill="#42312C"/>
  <path d="M73.79,51.13 C72.88,49.92 70.77,48.17 66.69,48.17 C62.61,48.17 60.5,49.92 59.59,51.13 C59.19,51.66 59.29,52.28 59.57,52.65 C59.83,53 60.59,53.32 61.44,53.03 C62.29,52.74 63.93,51.89 66.7,51.87 C69.46,51.89 71.11,52.74 71.96,53.03 C72.81,53.32 73.57,53 73.83,52.65 C74.09,52.28 74.19,51.66 73.79,51.13 Z" fill="#42312C"/>
  <path id="nose" d="M55.26,69.09 C55.16,69.05 55.05,69.02 54.94,69.01 L48,69.01 C47.89,69.02 47.79,69.05 47.68,69.09 C47.05,69.35 46.7,70 47,70.69 C47.3,71.38 48.68,73.33 51.47,73.33 C54.26,73.33 55.64,71.38 55.94,70.69 C56.24,70 55.89,69.35 55.26,69.09 Z" fill="#875334"/>
  <path id="hair" d="M91.58,66.72 L83.87,66.72 C83.93,62.89 83.96,51.03 79.97,47.34 C76.62,44.24 65.99,37.67 62.7,30.48 C62.7,30.48 50.04,42.34 27.68,47.37 C21.59,48.74 19.55,63.79 19.6,66.7 L11.88,66.72 C11.86,66.39 8.52,24.87 52.81,24.87 C97.1,24.87 91.58,66.67 91.58,66.72 Z" fill="#3C2C23"/>
  <path id="hairHighlights" d="M91.58,66.72 L83.87,66.72 C83.93,62.89 83.96,51.03 79.97,47.34 C76.62,44.24 65.99,37.67 62.7,30.48 C62.7,30.48 50.04,42.34 27.68,47.37 C21.59,48.74 19.55,63.79 19.6,66.7 L11.88,66.72 C11.86,66.39 8.52,24.87 52.81,24.87 C97.1,24.87 91.58,66.67 91.58,66.72 Z" fill="url(#hairHighlights_3_)"/>
  <path d="M77.49,29.04 C72.67,17.05 67.93,7.59 61.86,6.86 C60.24,6.67 56,6.13 51.71,6.12 C47.26,6.12 42.76,6.66 41.09,6.86 C35.02,7.59 30.28,17.05 25.45,29.03 C22.83,35.53 80.11,35.53 77.49,29.04 Z" fill="url(#SVGID_7_)"/>
  <path d="M91.57,24.72 C82.14,26.43 66.39,28.42 52.04,28.48 C51.85,28.48 51.66,28.48 51.47,28.48 C51.28,28.48 51.09,28.48 50.9,28.48 C36.55,28.42 20.8,26.43 11.37,24.72 C3.23,23.24 2.94,28.56 2.94,28.56 C2.94,28.56 5.52,25.37 10.05,29.79 C17.08,36.65 28.53,47.54 50.82,47.63 C51.04,47.63 51.25,47.62 51.47,47.62 C51.69,47.62 51.9,47.63 52.12,47.63 C74.42,47.53 85.86,36.65 92.89,29.79 C97.42,25.37 100,28.56 100,28.56 C100,28.56 99.71,23.24 91.57,24.72 Z" fill="url(#SVGID_8_)"/>
  <path d="M51.47,20.37 C36.29,20.37 26.42,26.92 26.42,26.92 C26.42,26.92 40.79,28.39 51.47,28.39 C62.15,28.39 76.52,26.92 76.52,26.92 C76.52,26.92 66.65,20.37 51.47,20.37 Z" fill="#78909C"/>
  <path d="M109.98,109.01 L109.98,124 L104.98,124 L104.98,109.01 L109.98,109.01 Z" fill="#D18100"/>
  <path d="M108.64,116.76 L106.32,116.76 C104.93,116.76 103.81,116.76 103.81,114.25 L103.81,102.24 L111.14,102.24 L111.14,114.25 C111.15,116.38 110.02,116.76 108.64,116.76 Z" fill="#636363"/>
  <path d="M116.73,99.5 C114.89,99.5 108.99,99.56 107.66,99.56 C105.54,99.56 99.92,99.37 97.63,99.37 C90.15,99.37 90.09,72.68 90.09,72.68 L90.09,97.39 C90.09,104.08 93.51,106.22 99.51,106.44 L114.89,106.44 C120.31,106.44 122.24,102.73 122.24,98.29 L121.86,93.43 C121.84,93.44 120.39,99.5 116.73,99.5 Z" fill="#616161"/>
  <path d="M123.37,38.4 C123.26,37.98 122.64,37.99 122.54,38.41 L121.39,43.09 L119.39,95.27 C119.39,95.27 119.38,95.54 119.38,95.68 C119.38,97.22 118.19,98.32 116.65,98.32 C115.11,98.32 113.84,97.2 113.84,95.66 C113.84,95.44 114.44,43.28 114.44,43.28 L113.25,38.15 C113.14,37.73 112.53,37.73 112.42,38.14 L111.07,43.19 L110.45,95.34 C110.45,97.04 109.42,98.33 107.72,98.33 C106.02,98.33 104.64,96.95 104.64,95.25 L104.34,43.08 L103.16,38.14 C103.05,37.73 102.45,37.73 102.33,38.14 L100.83,43.29 L100.86,95.15 C100.86,96.91 99.64,98.34 97.88,98.34 C95.92,98.34 94.48,96.91 94.48,95.15 L92.44,43.09 L91.1,38.12 C90.99,37.7 90.5,37.78 90.38,38.19 L89.01,43.19 L90.61,96.82 C90.61,101.34 93.49,104.76 99.49,104.99 L114.87,104.99 C120.29,104.99 122.37,101.26 122.37,96.82 L124.53,43.42 L123.37,38.4 Z" fill="url(#SVGID_9_)"/>
</svg>
